project/images/official/editable/465.svg

<svg width="171" height="94" xmlns="http://www.w3.org/2000/svg">
 <!-- Created with Method Draw - http://github.com/duopixel/Method-Draw/ -->

 <g>
  <title>background</title>
  <rect fill="#fff" id="canvas_background" height="96" width="173" y="-1" x="-1"/>
  <g display="none" overflow="visible" y="0" x="0" height="100%" width="100%" id="canvasGrid">
   <rect fill="url(#gridpattern)" stroke-width="0" y="0" x="0" height="100%" width="100%"/>
  </g>
 </g>
 <g>
  <title>Layer 1</title>
  <metadata id="svg_27">image/svg+xml</metadata>

  <g id="svg_29">
   <path fill="#007d45" fill-rule="nonzero" id="svg_26" d="m0.91141,93.14109l169.4283,0l0,-92.2805l-169.4283,0l0,92.2805zm0,0"/>
   <path fill="#ffffff" fill-rule="nonzero" id="svg_25" d="m7.68621,91.44627l155.87482,0c2.80564,0 5.08207,-2.27536 5.08207,-5.08839l0,-78.71408c0,-2.80912 -2.27643,-5.08838 -5.08207,-5.08838l-155.87482,0c-2.80565,0 -5.07818,2.27926 -5.08207,5.08838l0,78.71408c0,2.80913 2.27253,5.08449 5.08207,5.08839"/>
   <path fill="#007d45" fill-rule="nonzero" id="svg_24" d="m7.68621,89.41247c-1.68495,-0.00389 -3.0469,-1.36755 -3.0508,-3.05459l0,-78.71408c0.0039,-1.68703 1.36585,-3.05069 3.0508,-3.05069l155.87482,0c1.68494,0 3.0469,1.36366 3.0508,3.05069l0,78.71408c-0.00398,1.68704 -1.36586,3.0507 -3.0508,3.05459l-155.87482,0"/>
   <path fill="#ffffff" fill-rule="nonzero" id="svg_23" d="m145.9878,25.02067l1.77055,0l0,-5.34163c0,-0.64676 0.1362,-1.13767 0.38914,-1.49612c0.25682,-0.35844 0.64596,-0.52988 1.14016,-0.52988c0.81329,0 1.22187,0.54547 1.22187,1.6169l0,5.75073l1.76666,0l0,-5.34163c0,-0.64676 0.1362,-1.13767 0.39302,-1.49612c0.25294,-0.35844 0.64596,-0.52988 1.13627,-0.52988c0.81718,0 1.22187,0.54547 1.22187,1.6169l0,5.75073l1.77055,0l0,-5.71566c0,-1.0208 -0.20624,-1.80392 -0.61094,-2.3299c-0.42415,-0.52988 -1.05455,-0.79871 -1.90675,-0.79871c-0.55646,0 -1.01953,0.13637 -1.37364,0.4052c-0.358,0.29221 -0.63039,0.6117 -0.8522,0.97015c-0.08557,-0.16754 -0.18289,-0.33897 -0.30352,-0.5104c-0.12064,-0.15195 -0.2724,-0.3039 -0.44362,-0.44027c-0.16732,-0.12078 -0.37357,-0.22207 -0.59148,-0.30779c-0.2218,-0.08572 -0.49419,-0.11689 -0.78605,-0.11689c-0.5409,0 -0.9845,0.13637 -1.33862,0.4052c-0.358,0.29221 -0.64596,0.63118 -0.83275,1.05587l-0.03507,0c0,-0.05065 0,-0.15196 0,-0.28832c-0.01554,-0.12078 -0.01554,-0.25714 -0.01554,-0.39351c-0.01943,-0.13637 -0.01943,-0.26883 -0.01943,-0.38961c-0.01554,-0.12079 -0.01554,-0.22208 -0.01554,-0.27273l-1.7511,0c0.01554,0.23766 0.03507,0.49481 0.05061,0.76754c0.01554,0.26883 0.01554,0.56105 0.01554,0.88443l0,7.07542"/>
   <path fill="#ffffff" fill-rule="nonzero" id="svg_22" d="m136.87043,25.02067l1.76665,0l0,-4.32084l0.03507,0l2.90293,4.32084l2.1091,0l-3.53332,-4.79617l3.22591,-3.93123l-1.95345,0l-2.78619,3.53771l0,-7.57023l-1.76665,0l0,12.75992"/>
   <path fill="#ffffff" fill-rule="nonzero" id="svg_21" d="m145.9878,43.62093l1.77055,0l0,-5.34163c0,-0.64676 0.1362,-1.14157 0.38914,-1.50002c0.25682,-0.35455 0.64596,-0.52598 1.14016,-0.52598c0.81329,0 1.22187,0.54546 1.22187,1.6169l0,5.75073l1.76666,0l0,-5.34163c0,-0.64676 0.1362,-1.14157 0.39302,-1.50002c0.25294,-0.35455 0.64596,-0.52598 1.13627,-0.52598c0.81718,0 1.22187,0.54546 1.22187,1.6169l0,5.75073l1.77055,0l0,-5.71956c0,-1.0169 -0.20624,-1.80003 -0.61094,-2.32601c-0.42415,-0.52988 -1.05455,-0.80261 -1.90675,-0.80261c-0.55646,0 -1.01953,0.13637 -1.37364,0.4091c-0.358,0.28831 -0.63039,0.6117 -0.8522,0.97015c-0.08557,-0.17144 -0.18289,-0.33897 -0.30352,-0.5104c-0.12064,-0.15196 -0.2724,-0.3078 -0.44362,-0.44417c-0.16732,-0.11688 -0.37357,-0.21818 -0.59148,-0.30389c-0.2218,-0.08572 -0.49419,-0.12079 -0.78605,-0.12079c-0.5409,0 -0.9845,0.13637 -1.33862,0.4091c-0.358,0.28831 -0.64596,0.63118 -0.83275,1.05586l-0.03507,0c0,-0.05065 0,-0.15585 0,-0.28831c-0.01554,-0.12078 -0.01554,-0.25714 -0.01554,-0.39351c-0.01943,-0.13637 -0.01943,-0.27273 -0.01943,-0.38962c-0.01554,-0.12078 -0.01554,-0.22207 -0.01554,-0.27272l-1.7511,0c0.01554,0.23766 0.03507,0.49481 0.05061,0.76364c0.01554,0.27273 0.01554,0.56105 0.01554,0.88443l0,7.07932"/>
   <path fill="#ffffff" fill-rule="nonzero" id="svg_20" d="m136.87043,43.62093l1.76665,0l0,-4.32084l0.03507,0l2.90293,4.32084l2.1091,0l-3.53332,-4.80007l3.22591,-3.92733l-1.95345,0l-2.78619,3.53771l0,-7.57023l-1.76665,0l0,12.75992"/>
   <path fill="#ffffff" fill-rule="nonzero" id="svg_19" d="m145.9878,62.21729l1.77055,0l0,-5.33773c0,-0.64676 0.1362,-1.14158 0.38914,-1.50002c0.25682,-0.35455 0.64596,-0.52598 1.14016,-0.52598c0.81329,0 1.22187,0.54546 1.22187,1.6169l0,5.74683l1.76666,0l0,-5.33773c0,-0.64676 0.1362,-1.14158 0.39302,-1.50002c0.25294,-0.35455 0.64596,-0.52598 1.13627,-0.52598c0.81718,0 1.22187,0.54546 1.22187,1.6169l0,5.74683l1.77055,0l0,-5.71177c0,-1.0247 -0.20624,-1.80393 -0.61094,-2.3338c-0.42415,-0.52598 -1.05455,-0.79871 -1.90675,-0.79871c-0.55646,0 -1.01953,0.13637 -1.37364,0.4091c-0.358,0.28831 -0.63039,0.6117 -0.8522,0.97014c-0.08557,-0.17143 -0.18289,-0.34286 -0.30352,-0.5104c-0.12064,-0.15195 -0.2724,-0.30779 -0.44362,-0.44416c-0.16732,-0.12078 -0.37357,-0.21818 -0.59148,-0.30779c-0.2218,-0.08182 -0.49419,-0.11689 -0.78605,-0.11689c-0.5409,0 -0.9845,0.13637 -1.33862,0.4091c-0.358,0.28831 -0.64596,0.62728 -0.83275,1.05586l-0.03507,0c0,-0.05455 0,-0.15585 0,-0.29221c-0.01554,-0.11689 -0.01554,-0.25324 -0.01554,-0.38961c-0.01943,-0.13637 -0.01943,-0.27273 -0.01943,-0.38962c-0.01554,-0.12078 -0.01554,-0.22207 -0.01554,-0.27662l-1.7511,0c0.01554,0.24156 0.03507,0.49481 0.05061,0.76754c0.01554,0.27273 0.01554,0.56105 0.01554,0.88443l0,7.07542"/>
   <path fill="#ffffff" fill-rule="nonzero" id="svg_18" d="m136.87043,62.21729l1.76665,0l0,-4.32084l0.03507,0l2.90293,4.32084l2.1091,0l-3.53332,-4.79618l3.22591,-3.93122l-1.95345,0l-2.78619,3.54161l0,-7.57023l-1.76665,0l0,12.75602"/>
   <path fill="#ffffff" fill-rule="nonzero" id="svg_17" d="m145.9878,80.81755l1.77055,0l0,-5.34163c0,-0.64286 0.1362,-1.13768 0.38914,-1.49612c0.25682,-0.35845 0.64596,-0.52599 1.14016,-0.52599c0.81329,0 1.22187,0.54157 1.22187,1.61691l0,5.74683l1.76666,0l0,-5.34163c0,-0.64286 0.1362,-1.13768 0.39302,-1.49612c0.25294,-0.35845 0.64596,-0.52599 1.13627,-0.52599c0.81718,0 1.22187,0.54157 1.22187,1.61691l0,5.74683l1.77055,0l0,-5.71566c0,-1.0208 -0.20624,-1.80393 -0.61094,-2.3299c-0.42415,-0.52598 -1.05455,-0.79871 -1.90675,-0.79871c-0.55646,0 -1.01953,0.13637 -1.37364,0.40909c-0.358,0.28832 -0.63039,0.61171 -0.8522,0.97015c-0.08557,-0.17143 -0.18289,-0.34286 -0.30352,-0.5104c-0.12064,-0.15585 -0.2724,-0.30779 -0.44362,-0.44416c-0.16732,-0.11689 -0.37357,-0.22208 -0.59148,-0.3039c-0.2218,-0.08961 -0.49419,-0.12078 -0.78605,-0.12078c-0.5409,0 -0.9845,0.13637 -1.33862,0.40909c-0.358,0.28832 -0.64596,0.62729 -0.83275,1.05197l-0.03507,0c0,-0.05065 0,-0.15195 0,-0.28831c-0.01554,-0.11689 -0.01554,-0.25325 -0.01554,-0.38962c-0.01943,-0.13636 -0.01943,-0.27272 -0.01943,-0.39351c-0.01554,-0.11688 -0.01554,-0.21818 -0.01554,-0.26883l-1.7511,0c0.01554,0.23766 0.03507,0.49092 0.05061,0.76365c0.01554,0.27272 0.01554,0.56105 0.01554,0.88443l0,7.07542"/>
   <path fill="#ffffff" fill-rule="nonzero" id="svg_16" d="m136.87043,80.81755l1.76665,0l0,-4.32085l0.03507,0l2.90293,4.32085l2.1091,0l-3.53332,-4.79618l3.22591,-3.92733l-1.95345,0l-2.78619,3.53772l0,-7.57413l-1.76665,0l0,12.75992"/>
  </g>
  <text xml:space="preserve" text-anchor="start" font-family="sans-serif" font-size="15" id="svg_30" y="25.22789" x="7.90519" fill="#ffffff">param(text1)</text>
  <text xml:space="preserve" text-anchor="end" font-family="sans-serif" font-size="15" id="svg_31" y="25.22789" x="105.8797" fill="#ffffff">param(text2)</text>
  <text xml:space="preserve" text-anchor="start" font-family="sans-serif" font-size="15" id="svg_32" y="43.70887" x="7.39886" fill="#ffffff">param(text3)</text>
  <text xml:space="preserve" text-anchor="start" font-family="sans-serif" font-size="15" id="svg_33" y="62.18985" x="7.90519" fill="#ffffff">Basel</text>
  <text xml:space="preserve" text-anchor="end" font-family="sans-serif" font-size="15" id="svg_34" y="43.20254" x="106.63919" fill="#ffffff">param(text4)</text>
  <text xml:space="preserve" text-anchor="end" font-family="sans-serif" font-size="15" id="svg_35" y="61.93668" x="107.39869" fill="#ffffff">143</text>
  <text xml:space="preserve" text-anchor="start" font-family="sans-serif" font-size="15" id="svg_36" y="80.67083" x="7.65203" fill="#ffffff">Basel</text>
  <text xml:space="preserve" text-anchor="end" font-family="sans-serif" font-size="15" id="svg_37" y="80.92399" x="107.90501" fill="#ffffff">143</text>
 </g>
</svg>

<?xml version="1.0" encoding="UTF-8" standalone="no"?>
<svg
   xmlns:dc="http://purl.org/dc/elements/1.1/"
   xmlns:cc="http://creativecommons.org/ns#"
   xmlns:rdf="http://www.w3.org/1999/02/22-rdf-syntax-ns#"
   xmlns:svg="http://www.w3.org/2000/svg"
   xmlns="http://www.w3.org/2000/svg"
   xmlns:sodipodi="http://sodipodi.sourceforge.net/DTD/sodipodi-0.dtd"
   xmlns:inkscape="http://www.inkscape.org/namespaces/inkscape"
   width="171"
   height="94"
   version="1.1"
   id="svg9432"
   sodipodi:docname="465.svg"
   inkscape:version="1.0.2 (e86c870879, 2021-01-15, custom)">
  <metadata
     id="metadata9438">
    <rdf:RDF>
      <cc:Work
         rdf:about="">
        <dc:format>image/svg+xml</dc:format>
        <dc:type
           rdf:resource="http://purl.org/dc/dcmitype/StillImage" />
      </cc:Work>
    </rdf:RDF>
  </metadata>
  <defs
     id="defs9436" />
  <sodipodi:namedview
     pagecolor="#ffffff"
     bordercolor="#666666"
     borderopacity="1"
     objecttolerance="10"
     gridtolerance="10"
     guidetolerance="10"
     inkscape:pageopacity="0"
     inkscape:pageshadow="2"
     inkscape:window-width="1920"
     inkscape:window-height="1017"
     id="namedview9434"
     showgrid="false"
     inkscape:zoom="5.388071"
     inkscape:cx="68.077758"
     inkscape:cy="49.72529"
     inkscape:window-x="3832"
     inkscape:window-y="-3"
     inkscape:window-maximized="1"
     inkscape:current-layer="svg9432" />
  <!-- Created with Method Draw - http://github.com/duopixel/Method-Draw/ -->
  <g
     id="g9405">
    <title
       id="title9399">background</title>
    <rect
       fill="#fff"
       id="canvas_background"
       height="96"
       width="173"
       y="-1"
       x="-1" />
    <g
       display="none"
       overflow="visible"
       y="0"
       x="0"
       height="100%"
       width="100%"
       id="canvasGrid">
      <rect
         fill="url(#gridpattern)"
         stroke-width="0"
         y="0"
         x="0"
         height="100%"
         width="100%"
         id="rect9402" />
    </g>
  </g>
  <path
     fill="#007d45"
     fill-rule="nonzero"
     id="svg_26"
     d="m 0.91141,93.14109 h 169.4283 V 0.86059 H 0.91141 Z m 0,0" />
  <path
     fill="#ffffff"
     fill-rule="nonzero"
     id="svg_25"
     d="m 7.68621,91.44627 h 155.87482 c 2.80564,0 5.08207,-2.27536 5.08207,-5.08839 V 7.6438 c 0,-2.80912 -2.27643,-5.08838 -5.08207,-5.08838 H 7.68621 c -2.80565,0 -5.07818,2.27926 -5.08207,5.08838 v 78.71408 c 0,2.80913 2.27253,5.08449 5.08207,5.08839" />
  <path
     fill="#007d45"
     fill-rule="nonzero"
     id="svg_24"
     d="M 7.68621,89.41247 C 6.00126,89.40858 4.63931,88.04492 4.63541,86.35788 V 7.6438 C 4.63931,5.95677 6.00126,4.59311 7.68621,4.59311 h 155.87482 c 1.68494,0 3.0469,1.36366 3.0508,3.05069 v 78.71408 c -0.004,1.68704 -1.36586,3.0507 -3.0508,3.05459 H 7.68621" />
  <text
     xml:space="preserve"
     text-anchor="start"
     font-family="sans-serif"
     font-size="15px"
     id="svg_30"
     y="24.856699"
     x="5.7285032"
     fill="#ffffff">param(text1)</text>
  <text
     xml:space="preserve"
     text-anchor="start"
     font-family="sans-serif"
     font-size="15px"
     id="svg_31"
     y="42.937061"
     x="5.7285032"
     fill="#ffffff">param(text2)</text>
  <text
     xml:space="preserve"
     text-anchor="start"
     font-family="sans-serif"
     font-size="15px"
     id="svg_32"
     y="60.966484"
     x="5.7285032"
     fill="#ffffff">param(text3)</text>
  <text
     xml:space="preserve"
     text-anchor="start"
     font-family="sans-serif"
     font-size="15px"
     id="svg_34"
     y="81.019684"
     x="5.7285032"
     fill="#ffffff">param(text4)</text>
  <text
     xml:space="preserve"
     text-anchor="start"
     font-family="sans-serif"
     font-size="15px"
     id="svg_30-2"
     y="24.731924"
     x="135.11267"
     fill="#ffffff">km</text>
  <text
     xml:space="preserve"
     text-anchor="start"
     font-family="sans-serif"
     font-size="15px"
     id="svg_30-2-2"
     y="43.002872"
     x="135.11267"
     fill="#ffffff">km</text>
  <text
     xml:space="preserve"
     text-anchor="start"
     font-family="sans-serif"
     font-size="15px"
     id="svg_30-2-9"
     y="61.005608"
     x="135.11267"
     fill="#ffffff">km</text>
  <text
     xml:space="preserve"
     text-anchor="start"
     font-family="sans-serif"
     font-size="15px"
     id="svg_30-2-3"
     y="80.864288"
     x="135.11267"
     fill="#ffffff">km</text>
</svg>
